X:1
T:Title
%%score 1 2
L:1/8
Q:1/4=80
M:4/4
K:Ab
V:1 treble nm="Church Organ, SOPRANO ALTO"
V:2 bass nm="Church Organ, TENOR BASS"
V:1
 z4 z2 [CE][CE] | [CE]2 [A,C][CE] [CA]2 [CA][DB] | [Ec]2 [CA][DF] [CE]2 [CE]2 | %3
 [CA]2 [EA][Ec] [Ae]2 [Ac]A | [GB]6 [DE][DE] | [CE]2 [A,C][CE] [CA]2 [CA][DB] | %6
 [Ec]2 [CA][DF] [CE]2 E2 | [DF]2 [=DA][DA] [EG]2 [_DF][DG] | [CA]6 [Ac][Bd] | [Ae]6 [Af][Ae] | %10
 [Ac]6 EE | [EA]2 [EA][EA] [Ac]2 [AB]A | [GB]6 [Ac][Bd] | [Ae]6 [Af][Ae] | [Ac]6 [EA]2 | %15
 [DF]2 E[=DA] [_DG]2 [DF][DG] | [CA]6 z2 |] %17
V:2
 z4 z2 [A,,A,][A,,A,] | [A,,A,]2 [A,,E,][A,,E,] [A,,E,]2 [A,,E,][A,,E,] | %2
 [A,,A,]2 [A,,A,][A,,A,] [A,,A,]2 A,2 | [A,C]2 [A,C][A,E] [A,C]2 [A,E][F,=D] | %4
 [E,E]6 [E,G,][E,G,] | [A,,A,]2 [A,,A,][A,,A,] [A,,E,]2 [A,,E,][A,,E,] | %6
 [A,,A,]2 [A,,A,][A,,A,] [A,,A,]2 [C,A,]2 | [D,A,]2 [B,,B,][B,,B,] [E,B,]2 [E,G,][E,B,] | %8
 [A,,A,]6 z2 | z2 [A,C][A,C] [A,C]2 z2 | z2 [A,E]2 [A,E]2 [A,C][A,C] | %11
 [A,C]2 [A,C][A,C] [A,E]2 [A,D][A,C] | [E,E]2 [E,E][E,E] [E,E]2 z2 | %13
 z2 [A,C][A,C] [A,C]2 [A,D][A,C] | [A,E]2 [A,E][A,E] [A,E]2 [C,A,]2 | %15
 [D,A,]2 [C,A,][B,,A,] [E,B,]2 [E,B,][E,B,] | [A,,A,]6 z2 |] %17

